google-analytics-dashboard-for-wp/lite/assets/vue/img/yir-em-icon-mobile-small.svg

<svg width="16" height="27" viewBox="0 0 16 27" fill="none" xmlns="http://www.w3.org/2000/svg">
    <path d="M13.6 0H2.4C1.08 0 0 1.13906 0 2.53125V24.4688C0 25.8609 1.08 27 2.4 27H13.6C14.92 27 16 25.8609 16 24.4688V2.53125C16 1.13906 14.92 0 13.6 0ZM4.8 1.26562H11.2V2.10938H4.8V1.26562ZM8 25.3125C7.57565 25.3125 7.16869 25.1347 6.86863 24.8182C6.56857 24.5018 6.4 24.0726 6.4 23.625C6.4 23.1774 6.56857 22.7482 6.86863 22.4318C7.16869 22.1153 7.57565 21.9375 8 21.9375C8.42435 21.9375 8.83131 22.1153 9.13137 22.4318C9.43143 22.7482 9.6 23.1774 9.6 23.625C9.6 24.0726 9.43143 24.5018 9.13137 24.8182C8.83131 25.1347 8.42435 25.3125 8 25.3125ZM14.4 20.25H1.6V3.375H14.4V20.25Z" fill="#6528F5"/>
</svg>

<svg width="16" height="27" fill="none" xmlns="http://www.w3.org/2000/svg"><path d="M13.6 0H2.4C1.08 0 0 1.14 0 2.531V24.47C0 25.86 1.08 27 2.4 27h11.2c1.32 0 2.4-1.14 2.4-2.531V2.53C16 1.14 14.92 0 13.6 0zM4.8 1.266h6.4v.843H4.8v-.843zM8 25.313c-.424 0-.831-.178-1.131-.495a1.735 1.735 0 01-.469-1.193c0-.448.169-.877.469-1.193.3-.317.707-.494 1.131-.494.424 0 .831.177 1.131.494.3.316.469.745.469 1.193 0 .448-.169.877-.469 1.193-.3.317-.707.494-1.131.494zm6.4-5.063H1.6V3.375h12.8V20.25z" fill="#6528F5"/></svg>
